X:1
T:He Is Coming Soon
T:He Is Coming Soon
T:Robert Dean Burleson
T:Robert D. Burleson & Johnson Oatman, Jr., 1920
T:Public Domain Courtesy of the Cyber Hymnal™
T:Public Domain Courtesy of the Cyber Hymnal™
C:Robert Dean Burleson
Z:Public Domain
Z:Courtesy of the Cyber Hymnal™
%%score ( 1 2 ) ( 3 4 )
L:1/8
Q:1/4=92
M:4/4
K:F
V:1 treble 
V:2 treble 
V:3 bass 
V:4 bass 
V:1
 [A,C]>[CA] [CA]>[DB] [CA]2 [^CG]2 | [DF]>[DG] [DF]>[B,D] [A,C]4 | [A,C]>[CF] [CF]<[CF] [FA]4 | %3
w: 1.~Have you heard the sto- ry|of the Lamb once slain?|He is com- ing soon,|
w: 2.~’Tis the sweet- est sto- ry|ev- er mor- tal heard,|“He is com- ing soon,|
w: 3.~I am watch- ing for Him|ev- ery day and hour,|For He’s com- ing soon,|
w: 4.~There will be no sor- row,|there will be no tears,|When the Sav- ior comes,|
w: 5.~Be pre- pared to meet Him,|robed in gar- ments white,|He is com- ing soon,|
w: 6.~We shall rise to meet Him,|with our loved ones there;|He is com- ing soon,|
 [FA]>[EG] [DG]<[FA] [EG]4 | [A,C]>[CA] [CA]>[DB] [CA]2 [^CG]2 | [DF]>[DG] [DF]>[B,D] [A,C]4 | %6
w: He is com- ing soon;|Christ the King of Glo- ry,|o’er the earth to reign,|
w: sure- ly com- ing soon.”|Cheer- ing is the prom- ise|in His pre- cious Word,|
w: sure- ly com- ing soon;|No more as a ba- by,|but in king- ly power—|
w: and He’s com- ing soon;|O’er the earth our king will|reign a thou- sand years,|
w: sure- ly com- ing soon;|If you are not rea- dy,|seek the Lord to- night,|
w: sure- ly com- ing soon;|When we hear the trum- pet|sound- ing in the air,|
 [A,C]>[CF] [CF]<[CF] [FA]4 | [FA]>[EG] [FA]<[CG] [CF]4 ||"^Refrain" [Fc]3 [Fc] [FA]3 F | %9
w: And He’s com- ing soon,|sure- ly com- ing soon.||
w: He is com- ing soon,|sure- ly com- ing soon.||
w: Christ is com- ing soon,|sure- ly com- ing soon.||
w: O pre- pare for Him,|for He’s com- ing soon.||
w: For He’s com- ing soon,|sure- ly com- ing soon.||
w: And it won’t be long,|He is com- ing soon.||
 [FA][FA] [FA]>[EG] F4 | [FA]3 [CF] [FA]3 [Fc] | [Ec][DG] [DG]>[FA] [EG]4 | %12
w: |||
w: |||
w: |||
w: |||
w: |||
w: |||
 [Fc]3 [Fc] [CA]3 [A,F] | (3[B,G][CA][B,G] [A,F]>[B,D] [A,C]4 | [A,C]>[CF] [CF]<[CF] [FA]4 | %15
w: |||
w: |||
w: |||
w: |||
w: |||
w: |||
 [FA]>[EG] [FA]<[EG] [CF]4 x2 |] %16
w: |
w: |
w: |
w: |
w: |
w: |
V:2
 x8 | x8 | x8 | x8 | x8 | x8 | x8 | x8 || x7 F | x4 F4 | x8 | x8 | x8 | x8 | x8 | x10 |] %16
V:3
 F,>F, F,>F, F,2 [A,,F,]2 | [B,,B,]>[B,,B,] [B,,B,]>[B,,F,] F,4 | F,>[F,A,] [F,A,]<[F,A,] [F,C]4 | %3
w: ~ ~ ~ ~ ~ ~|~ ~ ~ ~ ~|~ ~ ~ ~ ~|
 [F,C]>[G,C] [G,=B,]<[G,B,] [C,C]4 | F,>F, F,>F, F,2 [A,,F,]2 | %5
w: ~ ~ ~ ~ ~|~ ~ ~ ~ ~ ~|
 [B,,B,]>[B,,B,] [B,,B,]>[B,,F,] F,4 | F,>[F,A,] [F,A,]<[F,A,] [F,C]4 | %7
w: ~ ~ ~ ~ ~|~ ~ ~ ~ ~|
 [C,C]>[C,C] [C,C]<[C,B,] [F,A,]4 || [F,A,]3 [F,A,] [F,C]3 [F,A,] | %9
w: ~ ~ ~ ~ ~|Go and tell the|
 [F,C][F,C] [C,C]>[C,B,] [F,A,]4 | [F,C]3 [F,A,] [F,C]3 [F,A,] | G,[G,=B,] [G,B,]>[G,B,] [C,C]4 | %12
w: sto- ry of His love,|He is com- ing|from His home a- bove.|
 [F,A,]3 [F,A,] F,3 F, | (3[C,E,][C,E,][C,E,] [D,F,]>[B,,F,] [F,,F,]4 | %14
w: Com- ing back His|won- der- ful love to prove;|
 F,>[F,A,] [F,A,]<[F,A,] [F,C]4 | [C,C]>[C,C] [C,C]<[C,B,] [F,A,]6 |] %16
w: Christ is com- ing soon,|sure- ly com- ing soon.|
V:4
 F,>F, F,>F, F,2 x2 | x4 F,4 | F,3/2 x13/2 | x8 | F,>F, F,>F, F,2 x2 | x4 F,4 | F,3/2 x13/2 | x8 || %8
 x8 | x8 | x8 | G, x7 | x4 F,3 F, | x8 | F,3/2 x13/2 | x10 |] %16

